;Header Start
;header_type: laser
;file_total_lines:1642
;max_x(mm): 63.81
;max_y(mm): 25
;max_z(mm): 0
;min_x(mm): 2.03
;min_y(mm): 1.32
;min_z(mm): 0
;Header End
; LightBurn 1.4.00
; SnapMaker device profile, absolute coords
; Bounds: X2.03 Y1.32 to X63.81 Y25
G21
G90
; Cut @ 3000 mm/min, 100% power
M106 P0 S255
M05
G0 X2.5 Y5 F0
; Layer 
M03 P100 S254.975
G1  Y25 F3000
M05
G0 X2.982 Y4.5 F0
M03 P100 S254.975
G1 X2.376 F3000
G1 X2.224 Y4.459
G1 X2.128 Y4.39
G1 X2.059 Y4.293
G1 X2.031 Y4.156
G1  Y4.059
G1 X2.059 Y3.921
G1 X2.141 Y3.811
G1 X2.252 Y3.728
G1 X2.376 Y3.715
G1 X3.464
G1 X3.602 Y3.742
G1 X3.712 Y3.811
G1 X3.795 Y3.949
G1 X3.809 Y4.059
G1  Y4.156
G1 X3.781 Y4.293
G1 X3.726 Y4.39
G1 X3.616 Y4.472
G1 X3.464 Y4.5
G1 X2.982
M05
G0 X2.114 Y3.384 F0
M03 P100 S254.975
G1 X2.045 F3000
G1  Y3.205
G1 X2.224
G1  Y3.384
G1 X2.114
M05
G0 X2.982 Y2.874 F0
M03 P100 S254.975
G1 X2.376 F3000
G1 X2.224 Y2.833
G1 X2.128 Y2.764
G1 X2.059 Y2.667
G1 X2.031 Y2.53
G1  Y2.433
G1 X2.059 Y2.295
G1 X2.141 Y2.185
G1 X2.252 Y2.102
G1 X2.376 Y2.089
G1 X3.464
G1 X3.602 Y2.116
G1 X3.712 Y2.185
G1 X3.795 Y2.323
G1 X3.809 Y2.433
G1  Y2.53
G1 X3.781 Y2.667
G1 X3.726 Y2.764
G1 X3.616 Y2.846
G1 X3.464 Y2.874
G1 X2.982
; Cut @ 3000 mm/min, 100% power
M106 P0 S255
M05
G0 X5.5 Y5 F0
G91
G0 Z0.5
G90
; Layer 
M03 P100 S254.975
G1  Y25 F3000
G91
M05
G0 Z-0.5
G90
M05
G0 X5.114 Y4.5 F0
G91
G0 Z0.5
G90
M03 P100 S254.975
G1 X5.045 F3000
G1  Y4.321
G1 X5.224
G1  Y4.5
G1 X5.114
G91
M05
G0 Z-0.5
G90
M05
G0 X6.795 Y3.301 F0
G91
G0 Z0.5
G90
M03 P100 S254.975
G1  Y3.949 F3000
G1 X5.775 Y3.976
G1  Y3.935
G1 X5.941 Y3.88
G1 X6.037 Y3.811
G1 X6.12 Y3.715
G1 X6.147 Y3.618
G1 X6.134 Y3.494
G1 X6.106 Y3.398
G1 X6.023 Y3.301
G1 X5.913 Y3.232
G1 X5.803 Y3.205
G1 X5.376
G1 X5.238 Y3.246
G1 X5.141 Y3.301
G1 X5.073 Y3.384
G1 X5.031 Y3.522
G1  Y3.646
G1 X5.045 Y3.742
G1 X5.141 Y3.894
G1 X5.238 Y3.963
G1 X5.376 Y3.99
G1 X5.555
G91
M05
G0 Z-0.5
G90
; Cut @ 3000 mm/min, 100% power
M106 P0 S255
M05
G0 X8.5 Y5 F0
G91
G0 Z1
G90
; Layer 
M03 P100 S254.975
G1  Y25 F3000
G91
M05
G0 Z-1
G90
M05
G0 X9.45 Y4.5 F0
G91
G0 Z1
G90
M03 P100 S254.975
G1 X9.575 Y4.321 F3000
G1 X9.795 Y4.142
G1 X8.045
G91
M05
G0 Z-1
G90
M05
G0 X8.114 Y3.728 F0
G91
G0 Z1
G90
M03 P100 S254.975
G1 X8.045 F3000
G1  Y3.549
G1 X8.224
G1  Y3.728
G1 X8.114
G91
M05
G0 Z-1
G90
M05
G0 X8.982 Y3.219 F0
G91
G0 Z1
G90
M03 P100 S254.975
G1 X8.376 F3000
G1 X8.224 Y3.177
G1 X8.128 Y3.108
G1 X8.059 Y3.012
G1 X8.031 Y2.874
G1  Y2.778
G1 X8.059 Y2.64
G1 X8.141 Y2.53
G1 X8.252 Y2.447
G1 X8.376 Y2.433
G1 X9.464
G1 X9.602 Y2.461
G1 X9.712 Y2.53
G1 X9.795 Y2.667
G1 X9.809 Y2.778
G1  Y2.874
G1 X9.781 Y3.012
G1 X9.726 Y3.108
G1 X9.616 Y3.191
G1 X9.464 Y3.219
G1 X8.982
G91
M05
G0 Z-1
G90
; Cut @ 3000 mm/min, 100% power
M106 P0 S255
M05
G0 X11.5 Y5 F0
G91
G0 Z1.5
G90
; Layer 
M03 P100 S254.975
G1  Y25 F3000
G91
M05
G0 Z-1.5
G90
M05
G0 X11.114 Y4.5 F0
G91
G0 Z1.5
G90
M03 P100 S254.975
G1 X11.045 F3000
G1  Y4.321
G1 X11.224
G1  Y4.5
G1 X11.114
G91
M05
G0 Z-1.5
G90
M05
G0 X12.795 Y3.301 F0
G91
G0 Z1.5
G90
M03 P100 S254.975
G1  Y3.949 F3000
G1 X11.775 Y3.976
G1  Y3.935
G1 X11.941 Y3.88
G1 X12.037 Y3.811
G1 X12.12 Y3.715
G1 X12.147 Y3.618
G1 X12.134 Y3.494
G1 X12.106 Y3.398
G1 X12.023 Y3.301
G1 X11.913 Y3.232
G1 X11.803 Y3.205
G1 X11.376
G1 X11.238 Y3.246
G1 X11.141 Y3.301
G1 X11.073 Y3.384
G1 X11.031 Y3.522
G1  Y3.646
G1 X11.045 Y3.742
G1 X11.141 Y3.894
G1 X11.238 Y3.963
G1 X11.376 Y3.99
G1 X11.555
G91
M05
G0 Z-1.5
G90
; Cut @ 3000 mm/min, 100% power
M106 P0 S255
M05
G0 X14.5 Y5 F0
G91
G0 Z2
G90
; Layer 
M03 P100 S254.975
G1  Y25 F3000
G91
M05
G0 Z-2
G90
M05
G0 X15.285 Y4.472 F0
G91
G0 Z2
G90
M03 P100 S254.975
G1 X15.464 F3000
G1 X15.561 Y4.459
G1 X15.671 Y4.404
G1 X15.767 Y4.307
G1 X15.809 Y4.156
G1  Y4.059
G1 X15.781 Y3.907
G1 X15.726 Y3.825
G1 X15.643 Y3.756
G1 X15.547 Y3.728
G1 X15.464 Y3.715
G1 X15.313
G1 X15.106 Y3.756
G1 X14.899 Y3.852
G1 X14.665 Y4.004
G1 X14.458 Y4.183
G1 X14.265 Y4.362
G1 X14.128 Y4.5
G1 X14.045
G1  Y3.687
G91
M05
G0 Z-2
G90
M05
G0 X14.114 Y3.37 F0
G91
G0 Z2
G90
M03 P100 S254.975
G1 X14.045 F3000
G1  Y3.191
G1 X14.224
G1  Y3.37
G1 X14.114
G91
M05
G0 Z-2
G90
M05
G0 X14.982 Y2.86 F0
G91
G0 Z2
G90
M03 P100 S254.975
G1 X14.376 F3000
G1 X14.224 Y2.819
G1 X14.128 Y2.75
G1 X14.059 Y2.654
G1 X14.031 Y2.516
G1  Y2.419
G1 X14.059 Y2.281
G1 X14.141 Y2.171
G1 X14.252 Y2.089
G1 X14.376 Y2.075
G1 X15.464
G1 X15.602 Y2.102
G1 X15.712 Y2.171
G1 X15.795 Y2.309
G1 X15.809 Y2.419
G1  Y2.516
G1 X15.781 Y2.654
G1 X15.726 Y2.75
G1 X15.616 Y2.833
G1 X15.464 Y2.86
G1 X14.982
G91
M05
G0 Z-2
G90
; Cut @ 3000 mm/min, 100% power
M106 P0 S255
M05
G0 X17.5 Y5 F0
G91
G0 Z2.5
G90
; Layer 
M03 P100 S254.975
G1  Y25 F3000
G91
M05
G0 Z-2.5
G90
M05
G0 X17.114 Y4.5 F0
G91
G0 Z2.5
G90
M03 P100 S254.975
G1 X17.045 F3000
G1  Y4.321
G1 X17.224
G1  Y4.5
G1 X17.114
G91
M05
G0 Z-2.5
G90
M05
G0 X18.795 Y3.301 F0
G91
G0 Z2.5
G90
M03 P100 S254.975
G1  Y3.949 F3000
G1 X17.775 Y3.976
G1  Y3.935
G1 X17.941 Y3.88
G1 X18.037 Y3.811
G1 X18.12 Y3.715
G1 X18.147 Y3.618
G1 X18.134 Y3.494
G1 X18.106 Y3.398
G1 X18.023 Y3.301
G1 X17.913 Y3.232
G1 X17.803 Y3.205
G1 X17.376
G1 X17.238 Y3.246
G1 X17.141 Y3.301
G1 X17.073 Y3.384
G1 X17.031 Y3.522
G1  Y3.646
G1 X17.045 Y3.742
G1 X17.141 Y3.894
G1 X17.238 Y3.963
G1 X17.376 Y3.99
G1 X17.555
G91
M05
G0 Z-2.5
G90
; Cut @ 3000 mm/min, 100% power
M106 P0 S255
M05
G0 X20.5 Y5 F0
G91
G0 Z3
G90
; Layer 
M03 P100 S254.975
G1  Y25 F3000
G91
M05
G0 Z-3
G90
M05
G0 X20.541 Y4.5 F0
G91
G0 Z3
G90
M03 P100 S254.975
G1 X20.376 F3000
G1 X20.238 Y4.472
G1 X20.141 Y4.404
G1 X20.073 Y4.321
G1 X20.031 Y4.183
G1 X20.017 Y4.114
G1 X20.031 Y3.99
G1 X20.073 Y3.894
G1 X20.141 Y3.811
G1 X20.238 Y3.742
G1 X20.376 Y3.715
G1 X20.693
G1 X20.817 Y3.742
G1 X20.913 Y3.811
G1 X20.968 Y3.935
G1 X21.051 Y3.825
G1 X21.12 Y3.756
G1 X21.216 Y3.742
G1 X21.478
G1 X21.588 Y3.756
G1 X21.685 Y3.811
G1 X21.767 Y3.894
G1 X21.795 Y3.99
G1 X21.809 Y4.073
G1  Y4.142
G1 X21.795 Y4.252
G1 X21.74 Y4.348
G1 X21.671 Y4.417
G1 X21.575 Y4.459
G1 X21.478 Y4.486
G1 X21.313
G91
M05
G0 Z-3
G90
M05
G0 X20.968 Y3.935 F0
G91
G0 Z3
G90
M03 P100 S254.975
G1  Y4.266 F3000
G91
M05
G0 Z-3
G90
M05
G0 X20.114 Y3.398 F0
G91
G0 Z3
G90
M03 P100 S254.975
G1 X20.045 F3000
G1  Y3.219
G1 X20.224
G1  Y3.398
G1 X20.114
G91
M05
G0 Z-3
G90
M05
G0 X20.982 Y2.888 F0
G91
G0 Z3
G90
M03 P100 S254.975
G1 X20.376 F3000
G1 X20.224 Y2.846
G1 X20.128 Y2.778
G1 X20.059 Y2.681
G1 X20.031 Y2.543
G1  Y2.447
G1 X20.059 Y2.309
G1 X20.141 Y2.199
G1 X20.252 Y2.116
G1 X20.376 Y2.102
G1 X21.464
G1 X21.602 Y2.13
G1 X21.712 Y2.199
G1 X21.795 Y2.337
G1 X21.809 Y2.447
G1  Y2.543
G1 X21.781 Y2.681
G1 X21.726 Y2.778
G1 X21.616 Y2.86
G1 X21.464 Y2.888
G1 X20.982
G91
M05
G0 Z-3
G90
; Cut @ 3000 mm/min, 100% power
M106 P0 S255
M05
G0 X23.5 Y5 F0
G91
G0 Z3.5
G90
; Layer 
M03 P100 S254.975
G1  Y25 F3000
G91
M05
G0 Z-3.5
G90
M05
G0 X23.114 Y4.5 F0
G91
G0 Z3.5
G90
M03 P100 S254.975
G1 X23.045 F3000
G1  Y4.321
G1 X23.224
G1  Y4.5
G1 X23.114
G91
M05
G0 Z-3.5
G90
M05
G0 X24.795 Y3.301 F0
G91
G0 Z3.5
G90
M03 P100 S254.975
G1  Y3.949 F3000
G1 X23.775 Y3.976
G1  Y3.935
G1 X23.941 Y3.88
G1 X24.037 Y3.811
G1 X24.12 Y3.715
G1 X24.147 Y3.618
G1 X24.134 Y3.494
G1 X24.106 Y3.398
G1 X24.023 Y3.301
G1 X23.913 Y3.232
G1 X23.803 Y3.205
G1 X23.376
G1 X23.238 Y3.246
G1 X23.141 Y3.301
G1 X23.073 Y3.384
G1 X23.031 Y3.522
G1  Y3.646
G1 X23.045 Y3.742
G1 X23.141 Y3.894
G1 X23.238 Y3.963
G1 X23.376 Y3.99
G1 X23.555
G91
M05
G0 Z-3.5
G90
; Cut @ 3000 mm/min, 100% power
M106 P0 S255
M05
G0 X26.5 Y5 F0
G91
G0 Z4
G90
; Layer 
M03 P100 S254.975
G1  Y25 F3000
G91
M05
G0 Z-4
G90
M05
G0 X26.045 Y3.866 F0
G91
G0 Z4
G90
M03 P100 S254.975
G1 X27.795 F3000
G1  Y3.935
G1 X26.569 Y4.5
G1  Y3.604
G91
M05
G0 Z-4
G90
M05
G0 X26.114 Y3.274 F0
G91
G0 Z4
G90
M03 P100 S254.975
G1 X26.045 F3000
G1  Y3.094
G1 X26.224
G1  Y3.274
G1 X26.114
G91
M05
G0 Z-4
G90
M05
G0 X26.982 Y2.764 F0
G91
G0 Z4
G90
M03 P100 S254.975
G1 X26.376 F3000
G1 X26.224 Y2.722
G1 X26.128 Y2.654
G1 X26.059 Y2.557
G1 X26.031 Y2.419
G1  Y2.323
G1 X26.059 Y2.185
G1 X26.141 Y2.075
G1 X26.252 Y1.992
G1 X26.376 Y1.978
G1 X27.464
G1 X27.602 Y2.006
G1 X27.712 Y2.075
G1 X27.795 Y2.213
G1 X27.809 Y2.323
G1  Y2.419
G1 X27.781 Y2.557
G1 X27.726 Y2.654
G1 X27.616 Y2.736
G1 X27.464 Y2.764
G1 X26.982
G91
M05
G0 Z-4
G90
; Cut @ 3000 mm/min, 100% power
M106 P0 S255
M05
G0 X29.5 Y5 F0
G91
G0 Z4.5
G90
; Layer 
M03 P100 S254.975
G1  Y25 F3000
G91
M05
G0 Z-4.5
G90
M05
G0 X29.114 Y4.5 F0
G91
G0 Z4.5
G90
M03 P100 S254.975
G1 X29.045 F3000
G1  Y4.321
G1 X29.224
G1  Y4.5
G1 X29.114
G91
M05
G0 Z-4.5
G90
M05
G0 X30.795 Y3.301 F0
G91
G0 Z4.5
G90
M03 P100 S254.975
G1  Y3.949 F3000
G1 X29.775 Y3.976
G1  Y3.935
G1 X29.941 Y3.88
G1 X30.037 Y3.811
G1 X30.12 Y3.715
G1 X30.147 Y3.618
G1 X30.134 Y3.494
G1 X30.106 Y3.398
G1 X30.023 Y3.301
G1 X29.913 Y3.232
G1 X29.803 Y3.205
G1 X29.376
G1 X29.238 Y3.246
G1 X29.141 Y3.301
G1 X29.073 Y3.384
G1 X29.031 Y3.522
G1  Y3.646
G1 X29.045 Y3.742
G1 X29.141 Y3.894
G1 X29.238 Y3.963
G1 X29.376 Y3.99
G1 X29.555
G91
M05
G0 Z-4.5
G90
; Cut @ 3000 mm/min, 100% power
M106 P0 S255
M05
G0 X32.5 Y5 F0
G91
G0 Z5
G90
; Layer 
M03 P100 S254.975
G1  Y25 F3000
G91
M05
G0 Z-5
G90
M05
G0 X33.795 Y3.811 F0
G91
G0 Z5
G90
M03 P100 S254.975
G1  Y4.459 F3000
G1 X32.775 Y4.486
G1  Y4.445
G1 X32.941 Y4.39
G1 X33.037 Y4.321
G1 X33.12 Y4.224
G1 X33.147 Y4.128
G1 X33.134 Y4.004
G1 X33.106 Y3.907
G1 X33.023 Y3.811
G1 X32.913 Y3.742
G1 X32.803 Y3.715
G1 X32.376
G1 X32.238 Y3.756
G1 X32.141 Y3.811
G1 X32.073 Y3.894
G1 X32.031 Y4.031
G1  Y4.156
G1 X32.045 Y4.252
G1 X32.141 Y4.404
G1 X32.238 Y4.472
G1 X32.376 Y4.5
G1 X32.555
G91
M05
G0 Z-5
G90
M05
G0 X32.114 Y3.398 F0
G91
G0 Z5
G90
M03 P100 S254.975
G1 X32.045 F3000
G1  Y3.219
G1 X32.224
G1  Y3.398
G1 X32.114
G91
M05
G0 Z-5
G90
M05
G0 X32.982 Y2.888 F0
G91
G0 Z5
G90
M03 P100 S254.975
G1 X32.376 F3000
G1 X32.224 Y2.846
G1 X32.128 Y2.778
G1 X32.059 Y2.681
G1 X32.031 Y2.543
G1  Y2.447
G1 X32.059 Y2.309
G1 X32.141 Y2.199
G1 X32.252 Y2.116
G1 X32.376 Y2.102
G1 X33.464
G1 X33.602 Y2.13
G1 X33.712 Y2.199
G1 X33.795 Y2.337
G1 X33.809 Y2.447
G1  Y2.543
G1 X33.781 Y2.681
G1 X33.726 Y2.778
G1 X33.616 Y2.86
G1 X33.464 Y2.888
G1 X32.982
G91
M05
G0 Z-5
G90
; Cut @ 3000 mm/min, 100% power
M106 P0 S255
M05
G0 X35.5 Y5 F0
G91
G0 Z5.5
G90
; Layer 
M03 P100 S254.975
G1  Y25 F3000
G91
M05
G0 Z-5.5
G90
M05
G0 X35.114 Y4.5 F0
G91
G0 Z5.5
G90
M03 P100 S254.975
G1 X35.045 F3000
G1  Y4.321
G1 X35.224
G1  Y4.5
G1 X35.114
G91
M05
G0 Z-5.5
G90
M05
G0 X36.795 Y3.301 F0
G91
G0 Z5.5
G90
M03 P100 S254.975
G1  Y3.949 F3000
G1 X35.775 Y3.976
G1  Y3.935
G1 X35.941 Y3.88
G1 X36.037 Y3.811
G1 X36.12 Y3.715
G1 X36.147 Y3.618
G1 X36.134 Y3.494
G1 X36.106 Y3.398
G1 X36.023 Y3.301
G1 X35.913 Y3.232
G1 X35.803 Y3.205
G1 X35.376
G1 X35.238 Y3.246
G1 X35.141 Y3.301
G1 X35.073 Y3.384
G1 X35.031 Y3.522
G1  Y3.646
G1 X35.045 Y3.742
G1 X35.141 Y3.894
G1 X35.238 Y3.963
G1 X35.376 Y3.99
G1 X35.555
G91
M05
G0 Z-5.5
G90
; Cut @ 3000 mm/min, 100% power
M106 P0 S255
M05
G0 X38.5 Y5 F0
G91
G0 Z6
G90
; Layer 
M03 P100 S254.975
G1  Y25 F3000
G91
M05
G0 Z-6
G90
M05
G0 X39.326 Y3.701 F0
G91
G0 Z6
G90
M03 P100 S254.975
G1 X39.464 F3000
G1 X39.588 Y3.728
G1 X39.671 Y3.77
G1 X39.74 Y3.839
G1 X39.795 Y3.935
G1 X39.809 Y4.059
G1  Y4.156
G1 X39.795 Y4.266
G1 X39.754 Y4.348
G1 X39.671 Y4.431
G1 X39.588 Y4.472
G1 X39.464 Y4.5
G1 X38.376
G1 X38.238 Y4.472
G1 X38.128 Y4.404
G1 X38.059 Y4.307
G1 X38.031 Y4.156
G1  Y4.059
G1 X38.059 Y3.907
G1 X38.141 Y3.797
G1 X38.252 Y3.728
G1 X38.376 Y3.701
G1 X38.817
G1 X38.941 Y3.728
G1 X39.065 Y3.811
G1 X39.134 Y3.907
G1 X39.175 Y4.087
G1 X39.147 Y4.252
G1 X39.065 Y4.39
G1 X38.899 Y4.5
G91
M05
G0 Z-6
G90
M05
G0 X38.114 Y3.37 F0
G91
G0 Z6
G90
M03 P100 S254.975
G1 X38.045 F3000
G1  Y3.191
G1 X38.224
G1  Y3.37
G1 X38.114
G91
M05
G0 Z-6
G90
M05
G0 X38.982 Y2.86 F0
G91
G0 Z6
G90
M03 P100 S254.975
G1 X38.376 F3000
G1 X38.224 Y2.819
G1 X38.128 Y2.75
G1 X38.059 Y2.654
G1 X38.031 Y2.516
G1  Y2.419
G1 X38.059 Y2.281
G1 X38.141 Y2.171
G1 X38.252 Y2.089
G1 X38.376 Y2.075
G1 X39.464
G1 X39.602 Y2.102
G1 X39.712 Y2.171
G1 X39.795 Y2.309
G1 X39.809 Y2.419
G1  Y2.516
G1 X39.781 Y2.654
G1 X39.726 Y2.75
G1 X39.616 Y2.833
G1 X39.464 Y2.86
G1 X38.982
G91
M05
G0 Z-6
G90
; Cut @ 3000 mm/min, 100% power
M106 P0 S255
M05
G0 X41.5 Y5 F0
G91
G0 Z6.5
G90
; Layer 
M03 P100 S254.975
G1  Y25 F3000
G91
M05
G0 Z-6.5
G90
M05
G0 X41.114 Y4.5 F0
G91
G0 Z6.5
G90
M03 P100 S254.975
G1 X41.045 F3000
G1  Y4.321
G1 X41.224
G1  Y4.5
G1 X41.114
G91
M05
G0 Z-6.5
G90
M05
G0 X42.795 Y3.301 F0
G91
G0 Z6.5
G90
M03 P100 S254.975
G1  Y3.949 F3000
G1 X41.775 Y3.976
G1  Y3.935
G1 X41.941 Y3.88
G1 X42.037 Y3.811
G1 X42.12 Y3.715
G1 X42.147 Y3.618
G1 X42.134 Y3.494
G1 X42.106 Y3.398
G1 X42.023 Y3.301
G1 X41.913 Y3.232
G1 X41.803 Y3.205
G1 X41.376
G1 X41.238 Y3.246
G1 X41.141 Y3.301
G1 X41.073 Y3.384
G1 X41.031 Y3.522
G1  Y3.646
G1 X41.045 Y3.742
G1 X41.141 Y3.894
G1 X41.238 Y3.963
G1 X41.376 Y3.99
G1 X41.555
G91
M05
G0 Z-6.5
G90
; Cut @ 3000 mm/min, 100% power
M106 P0 S255
M05
G0 X44.5 Y5 F0
G91
G0 Z7
G90
; Layer 
M03 P100 S254.975
G1  Y25 F3000
G91
M05
G0 Z-7
G90
M05
G0 X45.795 Y4.5 F0
G91
G0 Z7
G90
M03 P100 S254.975
G1  Y3.742 F3000
G1 X45.699
G1 X44.045 Y4.362
G91
M05
G0 Z-7
G90
M05
G0 X44.114 Y3.411 F0
G91
G0 Z7
G90
M03 P100 S254.975
G1 X44.045 F3000
G1  Y3.232
G1 X44.224
G1  Y3.411
G1 X44.114
G91
M05
G0 Z-7
G90
M05
G0 X44.982 Y2.902 F0
G91
G0 Z7
G90
M03 P100 S254.975
G1 X44.376 F3000
G1 X44.224 Y2.86
G1 X44.128 Y2.791
G1 X44.059 Y2.695
G1 X44.031 Y2.557
G1  Y2.461
G1 X44.059 Y2.323
G1 X44.141 Y2.213
G1 X44.252 Y2.13
G1 X44.376 Y2.116
G1 X45.464
G1 X45.602 Y2.144
G1 X45.712 Y2.213
G1 X45.795 Y2.35
G1 X45.809 Y2.461
G1  Y2.557
G1 X45.781 Y2.695
G1 X45.726 Y2.791
G1 X45.616 Y2.874
G1 X45.464 Y2.902
G1 X44.982
G91
M05
G0 Z-7
G90
; Cut @ 3000 mm/min, 100% power
M106 P0 S255
M05
G0 X47.5 Y5 F0
G91
G0 Z7.5
G90
; Layer 
M03 P100 S254.975
G1  Y25 F3000
G91
M05
G0 Z-7.5
G90
M05
G0 X47.114 Y4.5 F0
G91
G0 Z7.5
G90
M03 P100 S254.975
G1 X47.045 F3000
G1  Y4.321
G1 X47.224
G1  Y4.5
G1 X47.114
G91
M05
G0 Z-7.5
G90
M05
G0 X48.795 Y3.301 F0
G91
G0 Z7.5
G90
M03 P100 S254.975
G1  Y3.949 F3000
G1 X47.775 Y3.976
G1  Y3.935
G1 X47.941 Y3.88
G1 X48.037 Y3.811
G1 X48.12 Y3.715
G1 X48.147 Y3.618
G1 X48.134 Y3.494
G1 X48.106 Y3.398
G1 X48.023 Y3.301
G1 X47.913 Y3.232
G1 X47.803 Y3.205
G1 X47.376
G1 X47.238 Y3.246
G1 X47.141 Y3.301
G1 X47.073 Y3.384
G1 X47.031 Y3.522
G1  Y3.646
G1 X47.045 Y3.742
G1 X47.141 Y3.894
G1 X47.238 Y3.963
G1 X47.376 Y3.99
G1 X47.555
G91
M05
G0 Z-7.5
G90
; Cut @ 3000 mm/min, 100% power
M106 P0 S255
M05
G0 X50.5 Y5 F0
G91
G0 Z8
G90
; Layer 
M03 P100 S254.975
G1  Y25 F3000
G91
M05
G0 Z-8
G90
M05
G0 X50.569 Y4.5 F0
G91
G0 Z8
G90
M03 P100 S254.975
G1 X50.403 F3000
G1 X50.252 Y4.472
G1 X50.155 Y4.417
G1 X50.086 Y4.348
G1 X50.045 Y4.252
G1 X50.031 Y4.142
G1  Y4.045
G1 X50.045 Y3.935
G1 X50.114 Y3.839
G1 X50.21 Y3.756
G1 X50.376 Y3.715
G1 X50.706
G1 X50.803 Y3.728
G1 X50.872 Y3.77
G1 X50.927 Y3.825
G1 X50.982 Y3.921
G1 X51.051 Y3.825
G1 X51.12 Y3.77
G1 X51.23 Y3.728
G1 X51.492
G1 X51.575 Y3.742
G1 X51.671 Y3.797
G1 X51.754 Y3.866
G1 X51.795 Y3.963
G1 X51.809 Y4.045
G1  Y4.142
G1 X51.795 Y4.266
G1 X51.74 Y4.348
G1 X51.671 Y4.417
G1 X51.588 Y4.459
G1 X51.478 Y4.472
G1 X51.23
G1 X51.12 Y4.445
G1 X51.051 Y4.404
G1 X50.982 Y4.293
G1 X50.913 Y4.404
G1 X50.844 Y4.459
G1 X50.706 Y4.5
G1 X50.569
G91
M05
G0 Z-8
G90
M05
G0 X50.982 Y4.293 F0
G91
G0 Z8
G90
M03 P100 S254.975
G1  Y3.921 F3000
G91
M05
G0 Z-8
G90
M05
G0 X50.114 Y3.37 F0
G91
G0 Z8
G90
M03 P100 S254.975
G1 X50.045 F3000
G1  Y3.191
G1 X50.224
G1  Y3.37
G1 X50.114
G91
M05
G0 Z-8
G90
M05
G0 X50.982 Y2.86 F0
G91
G0 Z8
G90
M03 P100 S254.975
G1 X50.376 F3000
G1 X50.224 Y2.819
G1 X50.128 Y2.75
G1 X50.059 Y2.654
G1 X50.031 Y2.516
G1  Y2.419
G1 X50.059 Y2.281
G1 X50.141 Y2.171
G1 X50.252 Y2.089
G1 X50.376 Y2.075
G1 X51.464
G1 X51.602 Y2.102
G1 X51.712 Y2.171
G1 X51.795 Y2.309
G1 X51.809 Y2.419
G1  Y2.516
G1 X51.781 Y2.654
G1 X51.726 Y2.75
G1 X51.616 Y2.833
G1 X51.464 Y2.86
G1 X50.982
G91
M05
G0 Z-8
G90
; Cut @ 3000 mm/min, 100% power
M106 P0 S255
M05
G0 X53.5 Y5 F0
G91
G0 Z8.5
G90
; Layer 
M03 P100 S254.975
G1  Y25 F3000
G91
M05
G0 Z-8.5
G90
M05
G0 X53.114 Y4.5 F0
G91
G0 Z8.5
G90
M03 P100 S254.975
G1 X53.045 F3000
G1  Y4.321
G1 X53.224
G1  Y4.5
G1 X53.114
G91
M05
G0 Z-8.5
G90
M05
G0 X54.795 Y3.301 F0
G91
G0 Z8.5
G90
M03 P100 S254.975
G1  Y3.949 F3000
G1 X53.775 Y3.976
G1  Y3.935
G1 X53.941 Y3.88
G1 X54.037 Y3.811
G1 X54.12 Y3.715
G1 X54.147 Y3.618
G1 X54.134 Y3.494
G1 X54.106 Y3.398
G1 X54.023 Y3.301
G1 X53.913 Y3.232
G1 X53.803 Y3.205
G1 X53.376
G1 X53.238 Y3.246
G1 X53.141 Y3.301
G1 X53.073 Y3.384
G1 X53.031 Y3.522
G1  Y3.646
G1 X53.045 Y3.742
G1 X53.141 Y3.894
G1 X53.238 Y3.963
G1 X53.376 Y3.99
G1 X53.555
G91
M05
G0 Z-8.5
G90
; Cut @ 3000 mm/min, 100% power
M106 P0 S255
M05
G0 X56.5 Y5 F0
G91
G0 Z9
G90
; Layer 
M03 P100 S254.975
G1  Y25 F3000
G91
M05
G0 Z-9
G90
M05
G0 X56.513 Y4.5 F0
G91
G0 Z9
G90
M03 P100 S254.975
G1 X56.376 F3000
G1 X56.252 Y4.472
G1 X56.169 Y4.431
G1 X56.1 Y4.362
G1 X56.045 Y4.266
G1 X56.031 Y4.156
G1  Y4.059
G1 X56.045 Y3.935
G1 X56.086 Y3.852
G1 X56.169 Y3.783
G1 X56.252 Y3.728
G1 X56.376 Y3.701
G1 X57.464
G1 X57.602 Y3.742
G1 X57.712 Y3.811
G1 X57.781 Y3.894
G1 X57.809 Y4.059
G1  Y4.156
G1 X57.781 Y4.307
G1 X57.699 Y4.404
G1 X57.588 Y4.472
G1 X57.464 Y4.5
G1 X57.023
G1 X56.899 Y4.472
G1 X56.775 Y4.39
G1 X56.706 Y4.293
G1 X56.665 Y4.114
G1 X56.693 Y3.949
G1 X56.775 Y3.825
G1 X56.941 Y3.701
G91
M05
G0 Z-9
G90
M05
G0 X56.114 Y3.37 F0
G91
G0 Z9
G90
M03 P100 S254.975
G1 X56.045 F3000
G1  Y3.191
G1 X56.224
G1  Y3.37
G1 X56.114
G91
M05
G0 Z-9
G90
M05
G0 X56.982 Y2.86 F0
G91
G0 Z9
G90
M03 P100 S254.975
G1 X56.376 F3000
G1 X56.224 Y2.819
G1 X56.128 Y2.75
G1 X56.059 Y2.654
G1 X56.031 Y2.516
G1  Y2.419
G1 X56.059 Y2.281
G1 X56.141 Y2.171
G1 X56.252 Y2.089
G1 X56.376 Y2.075
G1 X57.464
G1 X57.602 Y2.102
G1 X57.712 Y2.171
G1 X57.795 Y2.309
G1 X57.809 Y2.419
G1  Y2.516
G1 X57.781 Y2.654
G1 X57.726 Y2.75
G1 X57.616 Y2.833
G1 X57.464 Y2.86
G1 X56.982
G91
M05
G0 Z-9
G90
; Cut @ 3000 mm/min, 100% power
M106 P0 S255
M05
G0 X59.5 Y5 F0
G91
G0 Z9.5
G90
; Layer 
M03 P100 S254.975
G1  Y25 F3000
G91
M05
G0 Z-9.5
G90
M05
G0 X59.114 Y4.5 F0
G91
G0 Z9.5
G90
M03 P100 S254.975
G1 X59.045 F3000
G1  Y4.321
G1 X59.224
G1  Y4.5
G1 X59.114
G91
M05
G0 Z-9.5
G90
M05
G0 X60.795 Y3.301 F0
G91
G0 Z9.5
G90
M03 P100 S254.975
G1  Y3.949 F3000
G1 X59.775 Y3.976
G1  Y3.935
G1 X59.941 Y3.88
G1 X60.037 Y3.811
G1 X60.12 Y3.715
G1 X60.147 Y3.618
G1 X60.134 Y3.494
G1 X60.106 Y3.398
G1 X60.023 Y3.301
G1 X59.913 Y3.232
G1 X59.803 Y3.205
G1 X59.376
G1 X59.238 Y3.246
G1 X59.141 Y3.301
G1 X59.073 Y3.384
G1 X59.031 Y3.522
G1  Y3.646
G1 X59.045 Y3.742
G1 X59.141 Y3.894
G1 X59.238 Y3.963
G1 X59.376 Y3.99
G1 X59.555
G91
M05
G0 Z-9.5
G90
; Cut @ 3000 mm/min, 100% power
M106 P0 S255
M05
G0 X62.5 Y5 F0
G91
G0 Z10
G90
; Layer 
M03 P100 S254.975
G1  Y25 F3000
G91
M05
G0 Z-10
G90
M05
G0 X63.45 Y4.5 F0
G91
G0 Z10
G90
M03 P100 S254.975
G1 X63.575 Y4.321 F3000
G1 X63.795 Y4.142
G1 X62.045
G91
M05
G0 Z-10
G90
M05
G0 X62.982 Y3.728 F0
G91
G0 Z10
G90
M03 P100 S254.975
G1 X62.376 F3000
G1 X62.224 Y3.687
G1 X62.128 Y3.618
G1 X62.059 Y3.522
G1 X62.031 Y3.384
G1  Y3.287
G1 X62.059 Y3.15
G1 X62.141 Y3.039
G1 X62.252 Y2.957
G1 X62.376 Y2.943
G1 X63.464
G1 X63.602 Y2.97
G1 X63.712 Y3.039
G1 X63.795 Y3.177
G1 X63.809 Y3.287
G1  Y3.384
G1 X63.781 Y3.522
G1 X63.726 Y3.618
G1 X63.616 Y3.701
G1 X63.464 Y3.728
G1 X62.982
G91
M05
G0 Z-10
G90
M05
G0 X62.114 Y2.612 F0
G91
G0 Z10
G90
M03 P100 S254.975
G1 X62.045 F3000
G1  Y2.433
G1 X62.224
G1  Y2.612
G1 X62.114
G91
M05
G0 Z-10
G90
M05
G0 X62.982 Y2.102 F0
G91
G0 Z10
G90
M03 P100 S254.975
G1 X62.376 F3000
G1 X62.224 Y2.061
G1 X62.128 Y1.992
G1 X62.059 Y1.896
G1 X62.031 Y1.758
G1  Y1.661
G1 X62.059 Y1.524
G1 X62.141 Y1.413
G1 X62.252 Y1.331
G1 X62.376 Y1.317
G1 X63.464
G1 X63.602 Y1.344
G1 X63.712 Y1.413
G1 X63.795 Y1.551
G1 X63.809 Y1.661
G1  Y1.758
G1 X63.781 Y1.896
G1 X63.726 Y1.992
G1 X63.616 Y2.075
G1 X63.464 Y2.102
G1 X62.982
G91
M05
G0 Z-10
G90
M107
M05
G90
; return to user-defined finish pos
G0 X0 Y0 F0
